X: 531
T:Travers's Reel
M:4/4
L:1/8
N:Posted to the woodenflute mailing list June 2002
Z:Paul de Grae
K:G
ge|dBBA B2 GB|dBGB AGED|~G2 Bd gaba|gedB A2 ge|
dBBA ~B3 c|d2 BG AGED|GABd gaba|gedB G2:|:GA|
Bd ~d2 ed ~d2|gd ~d2 edBA|Bd ~d2 edef|gedB A3 c|
Bd ~d2 ed ~d2|gd ~d2 edBA|Bdde gaba|gedB G2:|
<end>
<start>
